X:343
T:Hearty Boys of Ballymote, The
R:jig
H:Also played in Ador, #141
D:De Danann: Song for Ireland
D:Jerry Holland: The Fiddlesticks Collection
Z:id:hn-jig-343
M:6/8
K:Edor
F|:GEE B,EE|~F3 DFA|GEE B,EE|FED E2F|
GEE B,EE|~F3 DFA|BAG BdB|1 AFD E2F:|2 AFD E2c||
|:~d3 dcB|AFD FGA|Bee ede|fed AFA|
~d3 dcB|AFD FGA|Bee BdB|1 AFD E2c:|2 AFD E2||

